X:1
T:Title
%%score { ( 1 3 ) | ( 2 4 ) } 5 { 6 | 7 } { ( 8 10 12 ) | ( 9 11 ) }
L:1/8
Q:1/4=220
M:3/4
K:C
V:1 treble nm="Piano"
V:3 treble 
V:2 bass 
V:4 bass 
V:5 treble nm="Piano"
V:6 treble nm="Piano"
V:7 bass 
V:8 bass nm="Piano"
V:10 bass 
V:12 bass 
V:9 bass 
V:11 bass 
V:1
"^Mouvement de Valse" z6 | z6 | z6 | z6 | D3 D DD | .D2 .C2 .D2 | .E2 .G2 .E2 | .C2 z2 z2 | z6 | %9
 z6 | z6 | z6 | A3 A AA | .A2 .G2 .A2 | .B2 .d2 .B (3:2:2z E/ | z6 | .A2 .c2 .A (3:2:2z D/ | z6 | %18
 .G2 .B2 .G (3:2:2z C/ | z6 | .^F2 .^f2 z2 | .^f2 .^f'2 z2 | .g'2 .g2 z2 | .g'2 .g2 z2 | %24
 .^g'2 .^g2 z2 | .a'2 .a2 z2 | .a'.g' .f'.e' .d'.c' | .b.a .g.f .e.d | .c2 .B2 .c2 | .e2 .^d2 .e2 | %30
 .a2 .^g2 .a2 | .d'2 .^c'.d' .e'.d' | .g'2 .^f'2 .g'2 | .c'2 .b2 .c'2 | .f'2 .e'2 .^d'2 | %35
 .d'.c' .b.a .g2 | .c2 .B2 .c2 | .e2 .^d2 .e2 | .a2 .^g2 .a2 | .d'2 .^c'.d' .e'.d' | %40
!8va(! .g'2 .^f'2 .g'2 | .^g'2 .=g'2 .^g'2 | .a'2 ._b'2 .=b'2 | .c''.b' .c''.d'' .c''2 | %44
 .b'2 .c''2 .b'2 | .a'2 .b'2 .a'2 | .e'2 .^f'2 .e'2 | .d'2 .e'2 .d'2!8va)! | .b2 .c'2 .b2 | %49
 .a2 .b2 .a2 | .e2 .^f2 .e2 | .d2 .e2 .d2 | .^d2 .^c2 .d2 | .e2 .^d2 .e2 | .^f2 .e2 .f2 | %55
 .g2 .^f2 .g2 | .a2 .g2 .a2 | .b2 .c'2 .b3/2a/4b/4 | a2 .g2 .a2 | .b2 .c'2 .b2 | .b2 .c'2 .b2 | %61
 .a2 .b2 .a2 | .e2 .^f2 .e2 | .d2 .e2 .d2 | .B2 .c2 .B2 | .a2 .b2 .a2 | .e2 .^f2 .e2 | %67
 .d2 .e2 .d2 | .^d2 .^c2 .d2 | .e2 .^d2 .e2 | .^f2 .e2 .f2 | .g2 .^f2 .g2 | .a2 .g2 .a2 | %73
 .b2 .c'2 .b3/2a/4b/4 | %74
"_ritenuto" a2[Q:1/4=188] .g2[Q:1/4=174] .a2[Q:1/4=194][Q:1/4=182][Q:1/4=168] | %75
[Q:1/4=162] .b2[Q:1/4=148] .c'2 .g'2[Q:1/4=156] |[Q:1/4=220]"^A tempo." .c2 .B2 .c2 | %77
 .e2 .^d2 .e2 | .a2 .^g2 .a2 | .d'2 .^c'.d' .e'.d' | .g'2 .^f'2 .g'2 | .c'2 .b2 .c'2 | %82
 .f'2 .e'2 .^d'2 | .d'.c' .b.a .g2 | .c2 .B2 .c2 | .e2 .^d2 .e2 | .a2 .^g2 .a2 | %87
 .d'2 .^c'.d' .e'.d' | .g'2 .^f'2 .g'2 | .^g'2 .=g'2 .^g'2 | .a'2 ._b'2 .=b'2 | %91
 .c''.b' .c''.d'' .c''2 | z6 | z6 | E3 E EE | E3 E EE | .F2 .G2 .A2 | E6 | c3 c cc | .c2 .B2 .G2 | %100
 .B2 .A2 .F2 | .G2 .F2 .D2 | E3 E EE | E3 E EE | .F2 .G2 .A2 | E6 | e3 e ee | .e2 .d2 .B2 | %108
 f3 f ff | .f2 .e2 .c2 | g3 g gg | .g2 .f2 .d2 | .c'2 .b2 .g2 | .e'2 .d'2 .b2 |[M:9/4] z18 | %115
[M:3/4] .^g2 .=g2 .^g2 | .c'2 .b2 .c'2 | .f'2 .e'2 .f'2 | ._b'2 .a'.b' .c''.b' | %119
 .^d'2 .=d'2 .^d'2 | .^g'2 .=g'2 .^g'2 | .^c'2 .=c'2 .b2 | ._b.^g .=g.f .^d2 | .^g2 .=g2 .^g2 | %124
 .c'2 .b2 .c'2 | .f'2 .e'2 .f'2 | .^f'2 .=f'.^f' .g'.f' | .b2 ._b2 .=b2 | .^d'2 .=d'2 .^d'2 | %129
 .^f'2 .=f'2 .^f'2 | .g'2 .^f'.g' .a'.g' | .d'2 .^c'2 .d'2 | .g'2 .^f'2 .g'2 | .b'2 ._b'2 .=b'2 | %134
 .d''2 .^c''.d'' .e''.d'' | .c''2 .b'.c'' .d''.c'' | .b'2 ._b'.=b' .c''.b' | .a'2 .^g'.a' .b'.a' | %138
 e'4 ^f'2 | ^g'4 a'2 | g'4 f'2 | e'4 ^d'2 | e'4 ^f'2 | ^g'4 a'3/2-a'/4a'/4 | g'4 f'3/2-f'/4f'/4 | %145
 e'4 ^d'2 | e'6 | e'4 f'2 | f'4 e'2 | e'4 d'2 | d'4 c'2 | %151
 c'4[Q:1/4=174] _b2[Q:1/4=194][Q:1/4=188][Q:1/4=182][Q:1/4=168] | %152
[Q:1/4=162] _b4 a2[Q:1/4=156][Q:1/4=148] | a4 ^g2 |[Q:1/4=220]"^A tempo." z6 | z6 | E3 E EE | %157
 E3 E EE | .F2 .G2 .A2 | E6 | c3 c cc | .c2 .B2 .G2 | .B2 .A2 .F2 | .G2 .F2 .D2 | E3 E EE | %165
 E3 E EE | .F2 .G2 .A2 | E6 | e3 e ee | .e2 .d2 .B2 | f3 f ff | .f2 .e2 .c2 | g3 g gg | %173
 .g2 .f2 .d2 | .a2 .g2 .e2 | .b2 .a2 .f2 | .c'2 .b2 .^c'2 | .c'2 .d'2 .^c'2 | .^d'2 .=d'2 .e'2 | %179
 .^d'2 .f'2 .e'2 | _b^f' a=f' =bg' | _b^f' c'^g' =b=g' | .a'.g' .f'.e' .d'.c' | .b.a .g.f .e.d | %184
 .c2 .B2 .c2 | .e2 .^d2 .e2 | .a2 .^g2 .a2 | .d'2 .^c'.d' .e'.d' | .g'2 .^f'2 .g'2 | %189
 .c'2 .b2 .c'2 | .f'2 .e'2 .^d'2 | .d'.c' .b.a .g2 | .c2 .B2 .c2 | .e2 .^d2 .e2 | .a2 .^g2 .a2 | %195
 ._b2 .=b2 .c'2 | .^c'2 .=c'2 .^c'2 | .d'2 .^d'2 .e'2 | .f'2 .e'2 .f'2 | .^f'2 .g'2 .^g'2 | %200
 .a'2 .^g'2 .a'2 | ._b'2 .=b'2 .c''2 | c''d' a'b f'g | d'e bc gA | eF cD .e2 | %205
 .g2 .c'2 .e' (3:2:2z[K:bass] B,,/ | .[d'g']2 z2 z (3:2:2z[K:bass] C,/ | %207
 .[^d'^g']2 z2 z (3:2:2z[K:bass] ^C,/ | .[e'a']2 z2 z z/[K:bass] [G,,D,]/ | %209
[M:6/4][K:treble] z/16 g'3/16-g'/4 z/ z z2 z2 z6 |[K:Ab][M:3/4][Q:1/4=240]"^Poco piú mosso" z6 | %211
 z6 | z6 | z6 | z6 | z6 | z6 | z6 | a6 | g6 | e6- | e6 | a6 | g6 | e6- | e2 f2 g2 | a2 g2 a2 | %227
 b2 a2 b2 | c'2 b2 c'2 | d'2 e'2 d'2 | b6 | e'6- | e'4 c'2 | d'2 b2 c'2 | a6 | g6 | e6- | %237
 e2 =ef ^fg | a6 | g6 | e6- | e2 fg ab | c'2 d'2 c'2 | e'2 f'2 e'2 | b2 c'2 b2 | d'2 e'2 d'2 | %246
 f2 g2 a2 | b2 c'2 b2 | c'2 e2 a2- | a4 z2 | b6 | =a6 | ab c'=d' e'f' | g'e' b2 b2 | a'f' b2 b2 | %255
 g'e' b2 b2 | e'c' b2 b2 | f'=d' b2 b2 | b'2 b4 | g'2 =a4 | =ab c'=d' e'f' | g'e' b2 b2 | %262
 a'f' b2 b2 | g'e' b2 b2 | =b'a' e'2 e'2 | b'g' e'2 e'2 | e''2 =e''4 | d''2 e''4 | %268
 z =b'2 d''2 b'- | b' _b'2 =b'2 _b'- | b' a'2 a'2 a'- | a' a'2 ^f'2 =e'- | e' _e'2 =e'2 _e'- | %273
 e' d'2 g'2 b' | z e''2 f''2 e'' | z d''2 e''2 d'' | z =b'2 d''2 b'- | b' _b'2 =b'2 _b'- | %278
 b' a'2 a'2 a'- | a' a'2 g'2 f' | z g'2 a'2 b' | =d' =b'2 _b'2 a' | e' g'2 a'2 b' | %283
 =d' =b'2 _b'2 a' | e' g'2 a'2 g'- | g' f'2 g'2 f' | e'e'' d''c'' b'a' | g'f' e'd' c'b | %288
 c=B cd =de | =e_e =de d_d | c=B dc _BA | GE FG AB | c=B cd =de | =e_e =de d_d | c=B cA _Bc | %295
 dc fg ab | c'2 d'2 c'2 | e'2 f'2 e'2 | =d'2 e'2 d'2 | d'2 e'2 d'2 | f2 g2 a2 | b2 c'2 b2 | %302
 c'2 e2 a2- | a4 z2 | b6 | =a6 | ab c'=d' e'f' | g'e' b2 b2 | a'f' b2 b2 | g'e' b2 b2 | %310
 e'c' b2 b2 | f'=d' b2 b2 | b'2 b4 | b'2 =a4 | =ab c'=d' e'f' | g'e' b2 b2 | a'f' b2 b2 | %317
 g'e' b2 b2 | =b'a' e'2 e'2 | b'g' e'2 e'2 | e''2 e'4 | e''2 d'4 | z =b'2 d''2 b'- | %323
 b' _b'2 =b'2 _b'- | b' a'2 a'2 a'- | a' a'2 ^f'2 =e'- | e' _e'2 =e'2 _e'- | e' d'2 g'2 b' | %328
 z e''2 f''2 e'' | z =d''2 g'2 _d'' | z =b'2 f'2 b'- | b' _b'2 =b'2 _b'- | b' a'2 a'2 a'- | %333
 a' a'2 g'2 f' | z g'2 a'2 b' | =d' =b'2 _b'2 a' | e' g'2 a'2 b' | =d' =b'2 _b'2 a' | %338
 e' g'2 a'2 g'- | g' f'2 g'2 f' | e'e'' d''c'' b'a' | g'f' e'd' c'b | c=B cd =de | =e_e =de d_d | %344
 c=B dc _BA | GE FG AB | c=B cd =de | =e_e =de d_d | c=B cA _Bc | fg ab c'd' | e'2 f'2 e'2 | %351
 =d'2 e'2 d'2 | d'2 e'2 d'2 | c'2 d'2 c'2 | =b2 _b2 a2 | g2 a2 b2 | a'2 g'2 f'2 | =e'2 e'2 e'2 | %358
 =b2 _b2 a2 | g2 a2 b2 | =b'2 _b'2 a'2 | g'=e' d'b g_e' | a6 | ^f6 | f2 g2 a2 | b2 c'2 b2 | a6 | %367
 g6 | ^f2 g2 =a2 | b2 e'2 b2 | a4 g2 | e6 | a4 g2 | e6 | %374
[Q:1/2=120] a4[Q:1/2=115] g2[Q:1/2=118]"^.8"[Q:1/2=117]"^.5"[Q:1/2=116]"^.3"[Q:1/2=113]"^.8" | %375
[Q:1/2=112]"^.5" a4[Q:1/2=107]"^.5" g2[Q:1/2=111]"^.3"[Q:1/2=110][Q:1/2=108]"^.8"[Q:1/2=106]"^.3" | %376
[Q:1/2=105] a4[Q:1/2=100] g2[Q:1/2=103]"^.8"[Q:1/2=102]"^.5"[Q:1/2=101]"^.3"[Q:1/2=98]"^.8" | %377
[Q:1/2=97]"^.5" a4[Q:1/2=92]"^.5" g2[Q:1/2=96]"^.3"[Q:1/2=95][Q:1/2=93]"^.8"[Q:1/2=91]"^.3" | %378
[Q:1/2=90] ^f4[Q:1/2=85] g2[Q:1/2=88]"^.7"[Q:1/2=87]"^.5"[Q:1/2=86]"^.3"[Q:1/2=83]"^.8" | %379
[Q:1/2=82]"^.5" ^f4[Q:1/2=77]"^.5" g2[Q:1/2=81]"^.2"[Q:1/2=80][Q:1/2=78]"^.8"[Q:1/2=76]"^.3" | %380
[Q:1/2=75] ^f4[Q:1/2=70] g2[Q:1/2=73]"^.7"[Q:1/2=72]"^.5"[Q:1/2=71]"^.3"[Q:1/2=68]"^.8" | %381
[Q:1/2=67]"^.5" ^f6[Q:1/2=66]"^.2"[Q:1/2=65][Q:1/2=63]"^.8"[Q:1/2=62]"^.5"[Q:1/2=61]"^.3" | %382
[K:G][Q:1/4=220]"^1 movimento""^o" g4- gf | g4- gf | g4- gf | g4- g^g | a4- a_b | b4- ba | %388
 g4- g=f | e4- e^d | d4- d^c | d4- d^c | d4- d^c | d4- d^d | e4- e=f | f4- fe | d4- d^d | e4- ed | %398
 c4- c^c | d4- dc | B4- BB | c4- cA | .F2 .f2 z2 | .f2 .f'2 z2 | .g'2 .g2 z2 | .g'2 .g2 z2 | %406
 .^g'2 .^g2 z2 | .a'2 .a2 z2 | .a'.g' .=f'.e' .d'.c' | .b.a .g.=f .e.d | %410
[Q:1/4=250]"^stretto"!8va(! c'4 bc' | e'4 ^d'e' | g'4 f'g' | c''4 d''c'' | b'4 c''b' | _b'4 c''b' | %416
 a'4 _b'a' | ^g'2 =g'2 =f'2 | c'4 bc' | e'4 ^d'e' | g'4 f'g' | c''4 b'c'' | ^d''4 =d''^d'' | %423
 ^d''4 =d''^d'' | e''4 ^d''e'' | e''4 ^d''e'' | =f''4 e''f'' | =f''4 e''f'' | =f''4 e''f'' | %429
 =f''4 e''f'' | .=f''2 .d''2 .b'2 | .g'2 .e'2 .c'2!8va)! | .a2 .=f2 .d2 | .B2 .G2 .E2 | z6 | %435
 z2 b2 d'2 | z6 | z2 ^d'2 =f'2 | z6 | z2 f'2 ^g'2 | c''2 z c''2 c'' | z2 ^d''2 =f''2 | %442
 ^g'2 z =g'2 e' | z c'2 ^g2 =g | z e2 c2 ^G | z6 | z6 | !fermata!z6 |[Q:1/4=180]"^riten." z6 | %449
 z6 |] %450
V:2
 z6 | z6 | z6 | z6 | [^G,C]3 [G,C] [G,C][G,C] | .[G,B,]2 .[G,A,]2 .[G,B,]2 | %6
 .[G,C]2 .[G,C]2 .[G,C]2 | .G,2 z2 z2 | z6 | z6 | z6 | z6 | [^DG]3 [DG] [DG][DG] | %13
 .[D^F]2 .[DE]2 .[DF]2 | .[DG]2 z2 z2 | .B2 z2 z2 | z6 | .A2 z2 z2 | z6 | z/8 c3/8 z/ z z2 z2 | %20
 .[A,C^D]2 .[Ac^d]2 z2 | .[Ac^d]2 .[ac'^d']2 z2 | .[gbf']2 .[GBf]2 z2 | .[gc'e']2 .[Gce]2 z2 | %24
 .[^gc'd']2 .[^Gcd]2 z2 | .[ac'^d']2 .[Ac^d]2 z2 | .[ac'e'].g .f.e .d.c | .[Bdfg].A .G.F .E.D | %28
 .[CEG]2 .B,2 .C2 | .[EGc]2 .^D2 .E2 | .[Ac^d^f]2 .[^Gcdf]2 .[Acdf]2 | .[dg]2 .^c.d .e.d | %32
 .[g^c'e']2 .^f2 .g2 | .[cf]2 .B2 .c2 | .[fc']2 .[ec']2 .[^dc']2 | .[db].c .B.A .G2 | %36
 .[CEG]2 .B,2 .C2 | .[EGc]2 .^D2 .E2 | .[Ac^d^f]2 .[^Gcdf]2 .[Acdf]2 | .[dg]2 .^c.d .e.d | %40
 .[g^c'e']2 .^f2 .g2 | .[^g^c'f']2 .=g2 .^g2 | .[ad'f']2 .[_bd'f']2 .[=bd'f']2 | %43
 .[c'e'].b .c'.d' .c'2 | .[^d'g']2 z2 z2 | .[c'e']2 z2 z2 | .[ac']2 z2 z2 | .b2 z2 z2 | %48
 .[df]2 z2 z2 | .[ce]2 z2 z2 | .[G^c]2 z2 z2 | .G2 z2 z2 | .A2 .A2 .A2 | .G2 z2 z2 | .A2 .A2 .A2 | %55
 .G2 z2 z2 | .e2 .e2 .e2 | .^d2 z2 z2 | e2 .e2 .e2 | .^d2 z2 z2 | .[^dg]2 z2 z2 | .[ce]2 z2 z2 | %62
 .[Ac]2 z2 z2 | .B2 z2 z2 | .[DF]2 z2 z2 | .[ce]2 z2 z2 | .[G^c]2 z2 z2 | .G2 z2 z2 | .A2 .A2 .A2 | %69
 .G2 z2 z2 | .A2 .A2 .A2 | .G2 z2 z2 | .e2 .e2 .e2 | .^d2 z2 z2 | e2 .e2 .e2 | .^d2 z2 .[fgd'f']2 | %76
 .[CEG]2 .B,2 .C2 | .[EGc]2 .^D2 .E2 | .[Ac^d^f]2 .[^Gcdf]2 .[Acdf]2 | .[dg]2 .^c.d .e.d | %80
 .[g^c'e']2 .^f2 .g2 | .[c^f]2 .B2 .c2 | .[fc']2 .[ec']2 .[^dc']2 | .[db].c .B.A .G2 | %84
 .[CEG]2 .B,2 .C2 | .[EGc]2 .^D2 .E2 | .[Ac^d^f]2 .[^Gcdf]2 .[Acdf]2 | .[dg]2 .^c.d .e.d | %88
 .[g^c'e']2 .^f2 .g2 | .[^g^c'f']2 .=g2 .^g2 | .[ad'f']2 .[_bd'f']2 .[=bd'f']2 | %91
 .[c'e'].b .c'.d' .c'2 | z6 | z6 | [E,C]3 [E,C] [E,C][E,C] | [E,C]3 [E,C] [E,C][E,C] | %96
 .[F,D]2[K:treble] .[G,E]2 .[A,F]2 | [E,C]6 | [CA]3 [CA] [CA][CA] | .[CA]2 .[B,G]2 .[G,E]2 | %100
 .[B,G]2 .[A,F]2[K:bass] .[F,D]2 | .[G,E]2 .[F,D]2 .[D,B,]2 | [E,C]3 [E,C] [E,C][E,C] | %103
 [E,C]3 [E,C] [E,C][E,C] | .[F,D]2[K:treble] .[G,E]2 .[A,F]2 | [E,C]6 | [Ec]3 [Ec] [Ec][Ec] | %107
 .[Ec]2 .[DB]2 .[B,G]2 | [Fd]3 [Fd] [Fd][Fd] | .[Fd]2 .[Ec]2 .[CA]2 | [Ge]3 [Ge] [Ge][Ge] | %111
 .[Ge]2 .[Fd]2 .[DB]2 | .[ca]2 .[Bg]2 .[Ge]2 | .[ec']2 .[db]2 .[Bg]2 |[M:9/4] z18 | %115
[M:3/4] .[c^d]2 z2 z2 | .[c^d^g]2 z2 z2 | .[f^gbd']2 .[egbd']2 .[fgbd']2 | .[_b^d']2 .a.b .c'.b | %119
 .[^d_bc']2 .=d2 .^d2 | .[^g^c']2 .=g2 .^g2 | .[^c^g]2 .[=cg]2 .[Bg]2 | .[_Bg].^G .=G.F .^D2 | %123
 .[c^d]2 z2 z2 | .[c^d^g]2 z2 z2 | .[f^gbd']2 .[egbd']2 .[fgbd']2 | .[^fb^d']2 .=f.^f .g.f | %127
 .[B^d^f]2 ._B2 .=B2 | .[^d^fb]2 .=d2 .^d2 | .[^fb^d']2 .[fbd']2 .[fbd']2 | .[gbd']2 .^f.g .a.g | %131
 .[dgb]2 .^c2 .d2 | .[gbd']2 .^f2 .g2 | .[bd'g']2 .[_bd'g']2 .[=bd'g']2 | %134
 .[d'^g'b']2 .^c'.d' .e'.d' | .c'2 .b.c' .d'.c' | .b2 ._b.=b .c'.b | .a2 .^g.a .b.a | e4 ^f2 | %139
 ^g4 a2 | g4 f2 | e4 ^d2 | e4 ^f2 | ^g4 a2 | g4 f2 | e4 ^d2 | e6 | e4 f2 | f4 e2 | e4 d2 | d4 c2 | %151
 c4 _B2 | _B4 A2 | A4 ^G2 | z6 | z6 | [E,C]3 [E,C] [E,C][E,C] | [E,C]3 [E,C] [E,C][E,C] | %158
 .[F,D]2[K:treble] .[G,E]2 .[A,F]2 | [E,C]6 | [CA]3 [CA] [CA][CA] | .[CA]2 .[B,G]2 .[G,E]2 | %162
 .[B,G]2 .[A,F]2[K:bass] .[F,D]2 | .[G,E]2 .[F,D]2 .[D,B,]2 | [E,C]3 [E,C] [E,C][E,C] | %165
 [E,C]3 [E,C] [E,C][E,C] | .[F,D]2[K:treble] .[G,E]2 .[A,F]2 | [E,C]6 | [EG]3 [EG] [EG][EG] | %169
 .[EG]2 .[DF]2 .[B,D]2 | [FA]3 [FA] [FA][FA] | .[FA]2 .[EG]2 .[CE]2 | [GB]3 [GB] [GB][GB] | %173
 .[GB]2 .[FA]2 .[DF]2 | .[Ac]2 .[GB]2 .[EG]2 | .[Bd]2 .[Ac]2 .[FA]2 | .[ce]2 .[B^d]2 .[^cf]2 | %177
 .[ce]2 .[d^f]2 .[^c=f]2 | .[^d^f]2 .[=df]2 .[eg]2 | .[^dg]2 .[fa]2 .[e^g]2 | .^f2 .=f2 .g2 | %181
 .^f2 .^g2 .=g2 | .[ac'e'].g .f.e .d.c | .[Bdfg].A .G.F .E.D | .[CEG]2 .B,2 .C2 | %185
 .[EGc]2 .^D2 .E2 | .[Ac^d^f]2 .[^Gcdf]2 .[Acdf]2 | .[dg]2 .^c.d .e.d | .[g_be']2 .^f2 .g2 | %189
 .[cf]2 .B2 .c2 | .[fc']2 .[ec']2 .[^dc']2 | .[db].c .B.A .G2 | .[CEG]2 .B,2 .C2 | %193
 .[EGc]2 .^D2 .E2 | .[Ac^d^f]2 .[^Gcdf]2 .[Acdf]2 | .[_Bc^d^f]2 .[=Bcdf]2 .[cdf]2 | %196
 .[^ceg_b]2 .[=cegb]2 .[^cegc']2 | .[deg_b]2 .[^degb]2 .[egb]2 | .[f^gbd']2 .[egbd']2 .[fgbd']2 | %199
 .[^f^gbd']2 .[gbd']2 .[gbd']2 | .[a^c'd'^f']2 .[^gc'd'f']2 .[ac'd'f']2 | %201
 .[_bc'^d'^f']2 .[=bc'd'f']2 .[c'd'f']2 | .[e'g']2 .[c'e']2 .[ac']2 | .[fa]2 .[df]2 .[Bd]2 | %204
 .[GB]2 .[EG]2 z2 | .G2 .c2 .e (3z D,/4-[D,g]/4- | [D,gb]2 z2 z (3z ^D,/4-[D,g]/4- | %207
 [D,gc']2 z2 z (3z E,/4-[E,g]/4- | [E,g^c']2 z2 z (3z F,/4-[F,b]/4- |[M:6/4] [F,b]6 z6 | %210
[K:Ab][M:3/4] z6 | z6 | z6 | z6 | z6 | z6 | z6 | z6 | z6 | z6 | z6 | z6 | z6 | z6 | z6 | z6 | z6 | %227
 z6 | z6 | z6 | z6 | z6 | z6 | z6 | z6 | z6 | z6 | z6 | z6 | z6 | z6 | z6 | z6 | z6 | z6 | z6 | %246
 z6 | z6 | z6 | z6 | z6 | z6 | z6 | z6 | z6 | z6 | z6 | z6 | z6 | z6 | z6 | z6 | z6 | z6 | z6 | %265
 z6 | z6 | z6 | z6 | z6 | z6 | z6 | z6 | z6 | z6 | z6 | z6 | z6 | z6 | z6 | z6 | z6 | z6 | z6 | %284
 z6 | z6 | z6 | z6 | z6 | z6 | z6 | z6 | z6 | z6 | z6 | z6 | z6 | z6 | z6 | z6 | z6 | z6 | z6 | %303
 z6 | z6 | z6 | z6 | z6 | z6 | z6 | z6 | z6 | z6 | z6 | z6 | z6 | z6 | z6 | z6 | z6 | z6 | z6 | %322
 z6 | z6 | z6 | z6 | z6 | z6 | z6 | z6 | z6 | z6 | z6 | z6 | z6 | z6 | z6 | z6 | z6 | z6 | z6 | %341
 z6 | z6 | z6 | z6 | z6 | z6 | z6 | z6 | z6 | z6 | z6 | z6 | z6 | z6 | z6 | z6 | z6 | z6 | z6 | %360
 z6 | z6 | z6 | z6 | z6 | z6 | z6 | z6 | z6 | z6 | z6 | z6 | z6 | z6 | z6 | z6 | z6 | z6 | z6 | %379
 z6 | z6 | z6 |[K:G] z6 | z6 | z6 | G4- G^G | A4- A_B | B4- BA | G4- G=F | E4- E^D | z6 | z6 | z6 | %393
 D4- D^D | E4- E=F | F4- FE | z6 | z6 | z6 | z6 | z6 | z6 | .[A,C^D]2 .[Ac^d]2 z2 | %403
 .[Ac^d]2 .[ac'^d']2 z2 | .[gb=f']2 .[GB=f]2 z2 | .[gc'e']2 .[Gce]2 z2 | .[^gc'd']2 .[^Gcd]2 z2 | %407
 .[ac'^d']2 .[Ac^d]2 z2 | .[ac'e'].g .=f.e .d.c | .[Bd=fg].A .G.=F .E.D | [ceg]4 Bc | [egc']4 ^de | %412
 [gc'e']4 fg | c'4 d'c' | b4 c'b | _b4 c'b | a4 _ba | ^g2 =g2 =f2 | [ceg]4 Bc | [egc']4 ^de | %420
 [gc']4 fg | c'4 bc' | [^d'^g']4 =d'^d' | [^d'^g']4 =d'^d' | [e'^g']4 ^d'e' | [e'^g']4 ^d'e' | %426
 =f'4 e'f' | =f'4 e'f' | =f'4 e'f' | =f'4 e'f' | .[=f'a']2 .[d'f']2 .[bd']2 | %431
 .[gb]2 .[eg]2 .[ce]2 | .[Ac]2 .[=FA]2 .[DF]2 | .[B,D]2 .[G,B,]2 .[E,G,]2 | z6 | %435
 z2[K:treble] B2 d2 | z6 | z2 ^d2 =f2 | z6 | z2 f2 ^g2 | [c'e'g']2 z [c'e'g']2 [c'e'g'] | %441
 z2 ^d'2 =f'2 | [^gc'e']2 z =g2 e | z c2 ^G2 =G | z E2 C2 ^G, | z6 | z6 | !fermata!z6 | z6 | z6 |] %450
V:3
 x6 | x6 | x6 | x6 | x6 | x6 | x6 | x6 | x6 | x6 | x6 | x6 | x6 | x6 | x23/4 G/4- | G2 x15/4 E/4- | %16
 E2 x15/4 ^F/4- | F2 x15/4 D/4- | D2 x15/4 E/4- | E2 x4 | x6 | x6 | x6 | x6 | x6 | x6 | x6 | x6 | %28
 x6 | x6 | x6 | x6 | x6 | x6 | x6 | x6 | x6 | x6 | x6 | x6 |!8va(! x6 | x6 | x6 | x6 | x6 | x6 | %46
 x6 | x6!8va)! | x6 | x6 | x6 | x6 | x6 | x6 | x6 | x6 | x6 | x6 | x6 | x6 | x6 | x6 | x6 | x6 | %64
 x6 | x6 | x6 | x6 | x6 | x6 | x6 | x6 | x6 | x6 | x6 | x7/2 b/- b/ x3/2 | x6 | x6 | x6 | x6 | x6 | %81
 x6 | x6 | x6 | x6 | x6 | x6 | x6 | x6 | x6 | x6 | x6 | x6 | x6 | x6 | x6 | x6 | x6 | x6 | x6 | %100
 x6 | x6 | x6 | x6 | x6 | x6 | x6 | x6 | x6 | x6 | x6 | x6 | x6 | x6 |[M:9/4] x18 |[M:3/4] x6 | %116
 x6 | x6 | x6 | x6 | x6 | x6 | x6 | x6 | x6 | x6 | x6 | x6 | x6 | x6 | x6 | x6 | x6 | x6 | x6 | %135
 x6 | x6 | x6 | x6 | x6 | x6 | x6 | x6 | x6 | x6 | x6 | x6 | x6 | x6 | x6 | x6 | x6 | x6 | x6 | %154
 x6 | x6 | x6 | x6 | x6 | x6 | x6 | x6 | x6 | x6 | x6 | x6 | x6 | x6 | x6 | x6 | x6 | x6 | x6 | %173
 x6 | x6 | x6 | x6 | x6 | x6 | x6 | x6 | x6 | x6 | x6 | x6 | x6 | x6 | x6 | x6 | x6 | x6 | x6 | %192
 x6 | x6 | x6 | x6 | x6 | x6 | x6 | x6 | x6 | x6 | x6 | x6 | x6 | x11/2[K:bass] G,,/ | %206
 x11/2[K:bass] G,,/ | x11/2[K:bass] G,,/ | x11/2[K:bass] x/ |[M:6/4][K:treble] .[d'f']6 x6 | %210
[K:Ab][M:3/4] x6 | x6 | x6 | x6 | x6 | x6 | x6 | x6 | x6 | x6 | x6 | x6 | x6 | x6 | x6 | x6 | x6 | %227
 x6 | x6 | x6 | x6 | x6 | x6 | x6 | x6 | x6 | x6 | x6 | x6 | x6 | x6 | x6 | x6 | x6 | x6 | x6 | %246
 x6 | x6 | x6 | x6 | x6 | x6 | x6 | x6 | x6 | x6 | x6 | x6 | x6 | x6 | x6 | x6 | x6 | x6 | x6 | %265
 x6 | x6 | x6 | x6 | x6 | x6 | x6 | x6 | x6 | x6 | x6 | x6 | x6 | x6 | x6 | x6 | x6 | x6 | x6 | %284
 x6 | x6 | x6 | x6 | x6 | x6 | x6 | x6 | x6 | x6 | x6 | x6 | x6 | x6 | x6 | x6 | x6 | x6 | x6 | %303
 x6 | x6 | x6 | x6 | x6 | x6 | x6 | x6 | x6 | x6 | x6 | x6 | x6 | x6 | x6 | x6 | x6 | x6 | x6 | %322
 x6 | x6 | x6 | x6 | x6 | x6 | x6 | x6 | x6 | x6 | x6 | x6 | x6 | x6 | x6 | x6 | x6 | x6 | x6 | %341
 x6 | x6 | x6 | x6 | x6 | x6 | x6 | x6 | x6 | x6 | x6 | x6 | x6 | x6 | x6 | x6 | x6 | x6 | x6 | %360
 x6 | x6 | x6 | x6 | x6 | x6 | x6 | x6 | x6 | x6 | x6 | x6 | x6 | x6 | x6 | x6 | x6 | x6 | x6 | %379
 x6 | x6 | x6 |[K:G] x6 | x6 | x6 | x6 | x6 | x6 | x6 | x6 | x6 | x6 | x6 | x6 | x6 | x6 | x6 | %397
 x6 | x6 | x6 | x6 | x6 | x6 | x6 | x6 | x6 | x6 | x6 | x6 | x6 |!8va(! x6 | x6 | x6 | x6 | x6 | %415
 x6 | x6 | x6 | x6 | x6 | x6 | x6 | x6 | x6 | x6 | x6 | x6 | x6 | x6 | x6 | x6 | x6!8va)! | x6 | %433
 x6 | x6 | x6 | x6 | x6 | x6 | x6 | x6 | x6 | x6 | x6 | x6 | x6 | x6 | x6 | x6 | x6 |] %450
V:4
 x6 | x6 | x6 | x6 | x6 | x6 | x6 | x6 | x6 | x6 | x6 | x6 | x6 | x6 | x6 | e3/8 x31/6 (3:2:1C/- | %16
 C2 x4 | d3/8 x31/6 (3:2:1B,/- | B,2 x4 | .G2 x4 | x6 | x6 | x6 | x6 | x6 | x6 | x6 | x6 | x6 | %29
 x6 | x6 | x6 | x6 | x6 | x6 | x6 | x6 | x6 | x6 | x6 | x6 | x6 | x6 | x6 | x6 | x6 | x6 | x6 | %48
 x6 | x6 | x6 | x6 | x6 | x6 | x6 | x6 | x6 | x6 | x6 | x6 | x6 | x6 | x6 | x6 | x6 | x6 | x6 | %67
 x6 | x6 | x6 | x6 | x6 | x6 | x6 | x6 | x6 | x6 | x6 | x6 | x6 | x6 | x6 | x6 | x6 | x6 | x6 | %86
 x6 | x6 | x6 | x6 | x6 | x6 | x6 | x6 | x6 | x6 | x2[K:treble] x4 | x6 | x6 | x6 | x4[K:bass] x2 | %101
 x6 | x6 | x6 | x2[K:treble] x4 | x6 | x6 | x6 | x6 | x6 | x6 | x6 | x6 | x6 |[M:9/4] x18 | %115
[M:3/4] x6 | x6 | x6 | x6 | x6 | x6 | x6 | x6 | x6 | x6 | x6 | x6 | x6 | x6 | x6 | x6 | x6 | x6 | %133
 x6 | x6 | x6 | x6 | x6 | x6 | x6 | x6 | x6 | x6 | x6 | x6 | x6 | x6 | x6 | x6 | x6 | x6 | x6 | %152
 x6 | x6 | x6 | x6 | x6 | x6 | x2[K:treble] x4 | x6 | x6 | x6 | x4[K:bass] x2 | x6 | x6 | x6 | %166
 x2[K:treble] x4 | x6 | x6 | x6 | x6 | x6 | x6 | x6 | x6 | x6 | x6 | x6 | x6 | x6 | x6 | x6 | x6 | %183
 x6 | x6 | x6 | x6 | x6 | x6 | x6 | x6 | x6 | x6 | x6 | x6 | x6 | x6 | x6 | x6 | x6 | x6 | x6 | %202
 x6 | x6 | x6 | x23/4 G,/4- | G,2 x15/4 ^G,/4- | G,2 x15/4 A,/4- | A,2 x15/4 [B,g]/4- | %209
[M:6/4] [B,g]6 x6 |[K:Ab][M:3/4] x6 | x6 | x6 | x6 | x6 | x6 | x6 | x6 | x6 | x6 | x6 | x6 | x6 | %223
 x6 | x6 | x6 | x6 | x6 | x6 | x6 | x6 | x6 | x6 | x6 | x6 | x6 | x6 | x6 | x6 | x6 | x6 | x6 | %242
 x6 | x6 | x6 | x6 | x6 | x6 | x6 | x6 | x6 | x6 | x6 | x6 | x6 | x6 | x6 | x6 | x6 | x6 | x6 | %261
 x6 | x6 | x6 | x6 | x6 | x6 | x6 | x6 | x6 | x6 | x6 | x6 | x6 | x6 | x6 | x6 | x6 | x6 | x6 | %280
 x6 | x6 | x6 | x6 | x6 | x6 | x6 | x6 | x6 | x6 | x6 | x6 | x6 | x6 | x6 | x6 | x6 | x6 | x6 | %299
 x6 | x6 | x6 | x6 | x6 | x6 | x6 | x6 | x6 | x6 | x6 | x6 | x6 | x6 | x6 | x6 | x6 | x6 | x6 | %318
 x6 | x6 | x6 | x6 | x6 | x6 | x6 | x6 | x6 | x6 | x6 | x6 | x6 | x6 | x6 | x6 | x6 | x6 | x6 | %337
 x6 | x6 | x6 | x6 | x6 | x6 | x6 | x6 | x6 | x6 | x6 | x6 | x6 | x6 | x6 | x6 | x6 | x6 | x6 | %356
 x6 | x6 | x6 | x6 | x6 | x6 | x6 | x6 | x6 | x6 | x6 | x6 | x6 | x6 | x6 | x6 | x6 | x6 | x6 | %375
 x6 | x6 | x6 | x6 | x6 | x6 | x6 |[K:G] x6 | x6 | x6 | x6 | x6 | x6 | x6 | x6 | x6 | x6 | x6 | %393
 x6 | x6 | x6 | x6 | x6 | x6 | x6 | x6 | x6 | x6 | x6 | x6 | x6 | x6 | x6 | x6 | x6 | x6 | x6 | %412
 x6 | x6 | x6 | x6 | x6 | x6 | x6 | x6 | x6 | x6 | x6 | x6 | x6 | x6 | x6 | x6 | x6 | x6 | x6 | %431
 x6 | x6 | x6 | x6 | x2[K:treble] x4 | x6 | x6 | x6 | x6 | x6 | x6 | x6 | x6 | x6 | x6 | x6 | x6 | %448
 x6 | x6 |] %450
V:5
 z6 | z6 | z6 | z6 | z6 | z6 | z6 | z6 | z6 | z6 | z6 | z6 | z6 | z6 | z6 | z6 | z6 | z6 | z6 | %19
 z6 | z6 | z6 | z6 | z6 | z6 | z6 | z6 | z6 | z6 | z6 | z6 | z6 | z6 | z6 | z6 | z6 | z6 | z6 | %38
 z6 | z6 | z6 | z6 | z6 | z6 | z6 | z6 | z6 | z6 | z6 | z6 | z6 | z6 | z6 | z6 | z6 | z6 | z6 | %57
 z6 | z6 | z6 | z6 | z6 | z6 | z6 | z6 | z6 | z6 | z6 | z6 | z6 | z6 | z6 | z6 | z6 | z6 | z6 | %76
 z6 | z6 | z6 | z6 | z6 | z6 | z6 | z6 | z6 | z6 | z6 | z6 | z6 | z6 | z6 | z6 | z6 | z6 | z6 | %95
 z6 | z6 | z6 | z6 | z6 | z6 | z6 | z6 | z6 | z6 | z6 | z6 | z6 | z6 | z6 | z6 | z6 | z6 | z6 | %114
[M:9/4] z18 |[M:3/4] z6 | z6 | z6 | z6 | z6 | z6 | z6 | z6 | z6 | z6 | z6 | z6 | z6 | z6 | z6 | %130
 z6 | z6 | z6 | z6 | z6 | z6 | z6 | z6 | z6 | z6 | z6 | z6 | z6 | z6 | z6 | z6 | z6 | z6 | z6 | %149
 z6 | z6 | z6 | z6 | z6 | z6 | z6 | z6 | z6 | z6 | z6 | z6 | z6 | z6 | z6 | z6 | z6 | z6 | z6 | %168
 z6 | z6 | z6 | z6 | z6 | z6 | z6 | z6 | z6 | z6 | z6 | z6 | z6 | z6 | z6 | z6 | z6 | z6 | z6 | %187
 z6 | z6 | z6 | z6 | z6 | z6 | z6 | z6 | z6 | z6 | z6 | z6 | z6 | z6 | z6 | z6 | z6 | z6 | z6 | %206
 z6 | z6 | z6 |[M:6/4] z12 |[K:Ab][M:3/4] z6 | z6 | z6 | z6 | z6 | z6 | z6 | z6 | c6 | d6 | c6 | %221
 d6 | c6 | d6 | c6 | d6 | c6 | g6 | a6 | f6 | g6 | e6- | e4 a2 | f2 g2 e2 | c6 | d6 | c6 | d6 | %238
 c6 | d6 | c6 | d6 | e2 f2 e2 | g2 a2 g2 | d2 e2 d2 | f2 g2 f2 | A2 B2 c2 | d2 e2 d2 | c6- | %249
 c4 z2 | g6 | ^f6 | f6 | e6 | =d6 | e6 | c6 | =d6 | b2 g4 | b2 ^f4 | f6 | e6 | =d6 | e6 | a6 | g6 | %266
 =b2 a'4 | b2 ^f'4 | a2 =e'2 a2 | ^f2 e'2 f2 | =e2 d'2 a2 | =e2 _e2 d2 | =B2 a2 B2 | B2 e2 g2 | %274
 =b2 a'4 | b2 g'4 | a2 f'2 a2 | g2 e'2 g2 | f2 =d'2 =b2 | f2 e2 =d2 | e2 f2 g2 | a2 g2 f2 | %282
 e2 f2 g2 | a2 g2 f2 | e2 f2 e2 | d2 e2 d2 | cc'' b'a' g'f' | e'd' c'b ag | a6 | g6 | e6- | e6 | %292
 a6 | g6 | e6- | e2 de fg | ae af ae | bg c'a bg | =a^f bg af | af bg af | cA dB ec | fd ge fd | %302
 ec AB cd | e=d fe cA | G3 B eg | ^f6 | f6 | e6 | =d6 | e6 | c6 | =d6 | b2 g4 | b2 ^f4 | f6 | e6 | %316
 =d6 | e6 | a6 | g6 | e'2 =b4 | e'2 b4 | a2 =e'2 a2 | ^f2 e'2 f2 | =e2 d'2 a2 | =e2 _e2 d2 | %326
 =B2 a2 B2 | B2 e2 g2 | =b2 a'2 b2 | b3 g'3 | a2 f'2 a2 | g2 e'2 g2 | f2 =d'2 =b2 | f2 e2 =d2 | %334
 e2 f2 g2 | a2 g2 f2 | e2 f2 g2 | a2 g2 f2 | e2 f2 e2 | d2 e2 d2 | cc'' b'a' g'f' | e'd' c'b ag | %342
 a6 | g6 | e6- | e6 | a6 | g6 | e6 | de fg ab | c'a d'a c'a | =b^f bf bf | bg c'g bg | =a=e ae ae | %354
 af ge f=d | =ed ed ed | =bf _be a=d | gd ad bd | af ge f=d | =ed ed ed | f'a e'g =d'f | %361
 =ed' bg _ed | c=B cA _Bc | dc ed cB | Ac Bd ce | df eg df | c=B cA _Bc | dc ed cB | =Ac Bd ce | %369
 df gb df | c=B cd ed | c=B cd ed | c=B cd ed | c=B cd ed |"^ritenuto" c=B cd ed | c=B cd ed | %376
 c=B cd ed | c=B cd ed | c=B cd ed | c=B cd ed | c=B cd ed | c=B cd ed |[K:G] [B=f]_B =Bc dB | %383
 [G=f]6 | [ce]B cd ec | z6 | z6 | z6 | z6 | z6 | [DFc]=F ^F^G AF | [Dc]6 | [=FA]^F GA BG | z6 | %394
 z6 | z6 | [DB]_B =BA GF | E^D EF G^G | AB AG FE | D^C DE =F^F | GA GF ED | CB, CD EC | z6 | z6 | %404
 z6 | z6 | z6 | z6 | z6 | z6 | z6 | z6 | z6 | z6 | z6 | z6 | z6 | z6 | z6 | z6 | z6 | z6 | z6 | %423
 z6 | z6 | z6 | =f'6 | f'6 | g'6 | ^g'6 | z6 | z6 | z6 | z6 | .[C,E,G,C]2 z2 .[C,E,G,C]2 | z6 | %436
 .[C,E,G,C]2 z2 .[C,E,G,C]2 | z6 | .[C,E,G,C]2 z2 .[C,E,G,C]2 | z6 | z6 | z6 | z6 | z6 | z6 | %445
 z [G,G]2 [E,E]2 [C,C] | .^G,2 z2 z2 | !fermata!z6 | %448
 .[C,=F,^G,C]2 [B,,F,A,B,][C,F,A,C] [D,F,A,D][C,F,A,C] |[K:treble] !fermata![G,CEG]6 |] %450
V:6
 z6 | z6 | z6 | z6 | z6 | z6 | z6 | z6 | z6 | z6 | z6 | z6 | z6 | z6 | z6 | z6 | z6 | z6 | z6 | %19
 z6 | z6 | z6 | z6 | z6 | z6 | z6 | z6 | z6 | z6 | z6 | z6 | z6 | z6 | z6 | z6 | z6 | z6 | z6 | %38
 z6 | z6 | z6 | z6 | z6 | z6 | .^D2 z2 z2 | .E2 z2 z2 | .^F2 z2 z2 | .G2 z2 z2 | .^G2 z2 z2 | %49
 .A2 z2 z2 | ._B2 z2 z2 | .B2 z2 z2 | .B2 .B2 .B2 | .B2 z2 z2 | .B2 .B2 .B2 | .B2 z2 z2 | %56
 .E2 .E2 .E2 | .^F2 z2 z2 | .E2 .E2 .E2 | ^F6 | .^D2 z2 z2 | .E2 z2 z2 | .^F2 z2 z2 | .G2 z2 z2 | %64
 .^G2 z2 z2 | .A2 z2 z2 | ._B2 z2 z2 | .B2 z2 z2 | .B2 .B2 .B2 | .B2 z2 z2 | .B2 .B2 .B2 | %71
 .B2 z2 z2 | .E2 .E2 .E2 | .^F2 z2 z2 | .E2 .E2 .E2 | ^F6 | z6 | z6 | z6 | z6 | z6 | z6 | z6 | z6 | %84
 z6 | z6 | z6 | z6 | z6 | z6 | z6 | z6 | z6 | z6 | z6 | z6 | z6 | z6 | z6 | z6 | z6 | z6 | z6 | %103
 z6 | z6 | z6 | z6 | z6 | z6 | z6 | z6 | z6 | z6 | z6 |[M:9/4] z18 |[M:3/4] .^G2 z2 z2 | %116
 .^G2 z2 z2 | .^G2 .G2 .G2 | .G2 z2 z2 | z6 | z6 | z6 | z6 | .^G2 z2 z2 | .^G2 z2 z2 | %125
 .^G2 .G2 .G2 | .^F2 z2 z2 | .^F2 z2 z2 | .^F2 z2 z2 | .^F2 .=F2 .^F2 | .G2 z2 z2 | .G2 z2 z2 | %132
 .G2 z2 z2 | .G2 .G2 .G2 | .^G2 z2 z2 | .A2 z2 z2 | .^D2 z2 z2 | .^F2 z2 z2 | E,2 ^G2 A2 | %139
 E,2 B2 c2 | E,2 B2 A2 | E,2 ^G2 ^F2 | E,2 ^G2 A2 | E,2 B2 c2 | E,2 B2 A2 | E,2 G2 F2 | %146
 E,2 E2[K:treble] E2 | ^G,2 B2 B2 | A,2 A2 A2 | E,2 ^G2 G2 | F,2 ^G2 A2 | D,2 F2 F2 | E,2 ^D2 E2 | %153
 E,2 ^D2 =D2 | z6 | z6 | z6 | z6 | z6 | z6 | z6 | z6 | z6 | z6 | z6 | z6 | z6 | z6 | z6 | z6 | z6 | %171
 z6 | z6 | z6 | z6 | z6 | z6 | z6 | z6 | z6 | z6 | z6 | z6 | z6 | z6 | z6 | z6 | z6 | z6 | z6 | %190
 z6 | z6 | z6 | z6 | z6 | z6 | z6 | z6 | z6 | z6 | z6 | z6 | z6 | z6 | z6 | z6 | z6 | z6 | z6 | %209
[M:6/4] z12 |[K:Ab][M:3/4][K:treble] E6 | B6 | E6 | B6 | E6 | B6 | E6 | z6 | E6 | B6 | E6 | B6 | %222
 E6 | B6 | E6 | B6 | E6 | B6 | E6 | B6 | E6 | B6 | E6 | B6 | E6 | B6 | E6 | B6 | E6 | B6 | E6 | %241
 B6 | E6 | B6 | E6 | B6 | E6 | B6 | E6 | z6 | E6 | B6 | E6 | B6 | E6 | B6 | E6 | B6 | E6 | B6 | %260
 E6 | B6 | E6 | B6 | E6 | B6 | E6 | B6 | E6 | B6 | E6 | B6 | E6 | B6 | E6 | B6 | E6 | B6 | E6 | %279
 B6 | E6 | B6 | E6 | B6 | E6 | B6 | E6 | z6 | E6 | B6 | E6 | B6 | E6 | B6 | E6 | B6 | E6 | B6 | %298
 E6 | B6 | E6 | B6 | E6 | z6 | E6 | B6 | E6 | B6 | E6 | B6 | E6 | B6 | E6 | B6 | E6 | B6 | E6 | %317
 B6 | E6 | B6 | E6 | B6 | E6 | B6 | E6 | B6 | E6 | B6 | E6 | B6 | E6 | B6 | E6 | B6 | E6 | B6 | %336
 E6 | B6 | E6 | B6 | E6 | z6 | E6 | B6 | E6 | B6 | E6 | B6 | E6 | B6 | E6 | B6 | E6 | B6 | E6 | %355
 B6 | E6 | B6 | E6 | B6 | E6 | z6 | E6 | B6 | E6 | z6 | E6 | B6 | E6 | z6 | E6 | z6 | E6 | z6 | %374
 E6 | z6 | E6 | z6 | E6 | z6 | E6 | z6 |[K:G] z6 | z6 | z6 | z6 | z6 | z6 | z6 | z6 | z6 | z6 | %392
 z6 | z6 | z6 | z6 | z6 | z6 | z6 | z6 | z6 | z6 | z6 | z6 | z6 | z6 | z6 | z6 | z6 | z6 | %410
 C,2 C2 C,2 | B,2 C,2 B,2 | C,2 _B,2 C,2 | A,2 C,2 A,2 | C,2 ^G,2 C,2 | G,2 C,2 G,2 | C,2 F,2 C,2 | %417
 A,2 C,2 A,2 | C,2 C2 C,2 | B,2 C,2 B,2 | C,2 _B,2 C,2 | A,2 C,2 A,2 | C,2 ^G,2 C,2 | %423
 ^G,2 C,2 G,2 | C,2 F,2 C,2 | F,2 C,2 F,2 | ^C,2 =F,2 C,2 | =F,2 ^C,2 F,2 | ^C,2 =F,2 C,2 | %429
 =F,2 ^C,2 F,2 | z6 | z6 | z6 | z6 | z6 | c2 z c2 c | z6 | e2 z e2 e | z6 | g2 z g2 g | z2 b2 d'2 | %441
 e'2 z e'2 e' | z2 g2 e2 | c2 ^G2 =G2 | E2 z2 z2 | z6 | z6 | !fermata!z6 | z6 | z6 |] %450
V:7
 z6 | z6 | z6 | z6 | z6 | z6 | z6 | z6 | z6 | z6 | z6 | z6 | z6 | z6 | z6 | z6 | z6 | z6 | z6 | %19
 z6 | z6 | z6 | z6 | z6 | z6 | z6 | z6 | z6 | z6 | z6 | z6 | z6 | z6 | z6 | z6 | z6 | z6 | z6 | %38
 z6 | z6 | z6 | z6 | z6 | z6 | .G,2 z2 z2 | .G,2 z2 z2 | .G,2 z2 z2 | .G,2 z2 z2 | .G,2 z2 z2 | %49
 .G,2 z2 z2 | .G,2 z2 z2 | .G,2 z2 z2 | .^F2 .F2 .F2 | .E2 z2 z2 | .^D2 .D2 .D2 | .E2 z2 z2 | %56
 .C2 .C2 .C2 | .B,2 z2 z2 | .C2 .C2 .C2 | B,6 | .G,2 z2 z2 | .G,2 z2 z2 | .G,2 z2 z2 | .G,2 z2 z2 | %64
 .G,2 z2 z2 | .G,2 z2 z2 | .G,2 z2 z2 | .G,2 z2 z2 | .^F2 .F2 .F2 | .E2 z2 z2 | .^D2 .D2 .D2 | %71
 .E2 z2 z2 | .C2 .C2 .C2 | .B,2 z2 z2 | .C2 .C2 .C2 | B,6 | z6 | z6 | z6 | z6 | z6 | z6 | z6 | z6 | %84
 z6 | z6 | z6 | z6 | z6 | z6 | z6 | z6 | z6 | z6 | z6 | z6 | z6 | z6 | z6 | z6 | z6 | z6 | z6 | %103
 z6 | z6 | z6 | z6 | z6 | z6 | z6 | z6 | z6 | z6 | z6 |[M:9/4] z18 |[M:3/4] .[^G,C^D]2 z2 z2 | %116
 .[^G,C^D]2 z2 z2 | .[^G,B,DF]2 .[G,B,DE]2 .[G,B,DF]2 | .[G,_B,^D]2 z2 z2 | z6 | z6 | z6 | z6 | %123
 .[^G,C^D]2 z2 z2 | .[^G,C^D]2 z2 z2 | .[^G,B,DF]2 .[G,B,D^D]2 .[G,B,=DF]2 | .[^F,B,^D]2 z2 z2 | %127
 .[^F,B,^D]2 z2 z2 | .[^F,B,^D]2 z2 z2 | .[^F,B,^D]2 .[F,B,D]2 .[F,B,D]2 | .[F,B,D]2 z2 z2 | %131
 .[F,B,D]2 z2 z2 | .[F,B,D]2 z2 z2 | .[F,B,D]2 .[F,_B,D]2 .[F,=B,D]2 | .[E,B,D]2 z2 z2 | %135
 .[E,C]2 z2 z2 | .F,2 z2 z2 | .[E,A,]2 z2 z2 | z2[K:treble] B,2 C2 | z2 D2 E2 | z2 D2 C2 | %141
 z2 B,2 A,2 | z2 B,2 C2 | z2 D2 E2 | z2 D2 C2 | z2 B,2 A,2 | z2 ^G,2 G,2 | z2 [DE]2 [DF]2 | %148
 z2 [DF]2 [CE]2 | z2 C2 B,2 | z2 B,2 C2 | z2 C2 _B,2 | z2 C2 C2 | z2 C2 B,2 | z6 | z6 | z6 | z6 | %158
 z6 | z6 | z6 | z6 | z6 | z6 | z6 | z6 | z6 | z6 | z6 | z6 | z6 | z6 | z6 | z6 | z6 | z6 | z6 | %177
 z6 | z6 | z6 | z6 | z6 | z6 | z6 | z6 | z6 | z6 | z6 | z6 | z6 | z6 | z6 | z6 | z6 | z6 | z6 | %196
 z6 | z6 | z6 | z6 | z6 | z6 | z6 | z6 | z6 | z6 | z6 | z6 | z6 |[M:6/4] z12 |[K:Ab][M:3/4] z6 | %211
 z6 | z6 | z6 | z6 | z6 | z6 | z6 | z6 | z6 | z6 | z6 | z6 | z6 | z6 | z6 | z6 | z6 | z6 | z6 | %230
 z6 | z6 | z6 | z6 | z6 | z6 | z6 | z6 | z6 | z6 | z6 | z6 | z6 | z6 | z6 | z6 | z6 | z6 | z6 | %249
 z6 | z6 | z6 | z6 | z6 | z6 | z6 | z6 | z6 | z6 | z6 | z6 | z6 | z6 | z6 | z6 | z6 | z6 | z6 | %268
 z6 | z6 | z6 | z6 | z6 | z6 | z6 | z6 | z6 | z6 | z6 | z6 | z6 | z6 | z6 | z6 | z6 | z6 | z6 | %287
 z6 | z6 | z6 | z6 | z6 | z6 | z6 | z6 | z6 | z6 | z6 | z6 | z6 | z6 | z6 | z6 | z6 | z6 | z6 | %306
 z6 | z6 | z6 | z6 | z6 | z6 | z6 | z6 | z6 | z6 | z6 | z6 | z6 | z6 | z6 | z6 | z6 | z6 | z6 | %325
 z6 | z6 | z6 | z6 | z6 | z6 | z6 | z6 | z6 | z6 | z6 | z6 | z6 | z6 | z6 | z6 | z6 | z6 | z6 | %344
 z6 | z6 | z6 | z6 | z6 | z6 | z6 | z6 | z6 | z6 | z6 | z6 | z6 | z6 | z6 | z6 | z6 | z6 | z6 | %363
 z6 | z6 | z6 | z6 | z6 | z6 | z6 | z6 | z6 | z6 | z6 | z6 | z6 | z6 | z6 | z6 | z6 | z6 | z6 | %382
[K:G] z6 | z6 | z6 | z6 | z6 | z6 | z6 | z6 | z6 | z6 | z6 | z6 | z6 | z6 | z6 | z6 | z6 | z6 | %400
 z6 | z6 | z6 | z6 | z6 | z6 | z6 | z6 | z6 | z6 | z6 | z6 | z6 | z6 | z6 | z6 | z6 | z6 | z6 | %419
 z6 | z6 | z6 | z6 | z6 | z6 | z6 | z6 | z6 | z6 | z6 | z6 | z6 | z6 | z6 | z6 | %435
 [CEG]2 z [CEG]2 [CEG] | z6 | [EGc]2 z [EGc]2 [EGc] | z6 | [Gce]2 z [Gce]2 [Gce] | z2 B2 d2 | %441
 [egc']2 z [egc']2 [egc'] | z2 G2[K:bass] E2 | C2 ^G,2 =G,2 | E,2 z2 z2 | z6 | z6 | !fermata!z6 | %448
 z6 | z6 |] %450
V:8
 D,3 D, D,D, | .D,2 .C,2 .D,2 | .E,2 .G,2 .E,2 | .C,2 z2 z2 | F,3 F, F,F, | .F,2 .F,2 .F,2 | %6
 .E,2 .E,2 .E,2 | .E,2 z2 z2 | A,3 A, A,A, | .A,2 .G,2 .A,2 | .B,2 .D2 .B,2 | .E2 z2 z2 | C3 C CC | %13
 .C2 .C2 .C2 | .B,2 z2 z2 | .C,2 .E,2 .C,2 | .^F,2 z2 z2 | .B,,2 .D,2 .B,,2 | .E,2 z2 z2 | %19
 .A,,2 .C,2 .A,,2 | D,3 D, D,D, | D,3 D, D,D, | .D,2 .C,2 .D,2 | .E,2 .D,2 .E,2 | .F,2 .E,2 .F,2 | %25
 .^F,2 .=F,2 .^F,2 | .G,.G, .G,.G, .G,.G, | .G,.G, .G,.G, .G,.G, | .C,2 z2 z2 | .C,2 z2 z2 | %30
 .C2 .C2 .C2 | .B,2 z2 z2 | ._B,2 z2 z2 | .A,2 z2 z2 | .^G,2 .=G,2 .^F,2 | .G,2 z2 z2 | %36
 .C,2 z2 z2 | .C,2 z2 z2 | .C2 .C2 .C2 | .B,2 z2 z2 | ._B,2 z2 z2 | .^G,2 z2 z2 | .G,2 .G,2 .G,2 | %43
 .C,2 z2 z2 | z6 | z6 | z6 | z6 | z6 | z6 | z6 | z6 | z6 | z6 | z6 | z6 | z6 | z6 | z6 | z6 | z6 | %61
 z6 | z6 | z6 | z6 | z6 | z6 | z6 | z6 | z6 | z6 | z6 | z6 | z6 | z6 | z2 z2 .G,2 | .C,2 z2 z2 | %77
 .C,2 z2 z2 | .C2 .C2 .C2 | .B,2 z2 z2 | ._B,2 z2 z2 | .A,2 z2 z2 | .^G,2 .=G,2 .^F,2 | %83
 .G,2 z2 z2 | .C,2 z2 z2 | .C,2 z2 z2 | .C2 .C2 .C2 | .B,2 z2 z2 | ._B,2 z2 z2 | .^G,2 z2 z2 | %90
 .G,2 .G,2 .G,2 | .C,2 z2 z2 | .A,,2 .^G,,2 .A,,2 | .A,,2 .^G,,2 .A,,2 | .A,,2 .^G,,2 .A,,2 | %95
 .A,,2 .^G,,2 .A,,2 | .A,,2 .^G,,2 .A,,2 | .A,,2 .^G,,2 .A,,2 | .A,,2 .^G,,2 .A,,2 | %99
 .A,,2 .^G,,2 .A,,2 | .A,,2 .^G,,2 .A,,2 | .A,,2 .^G,,2 .A,,2 | .A,,2 .^G,,2 .A,,2 | %103
 .A,,2 .^G,,2 .A,,2 | .A,,2 .^G,,2 .A,,2 | .A,,2 .^G,,2 .A,,2 | .G,,2 .^F,,2 .G,,2 | %107
 .G,,2 .^F,,2 .G,,2 | .G,,2 .^F,,2 .G,,2 | .G,,2 .^F,,2 .G,,2 | .G,,2 .^F,,2 .G,,2 | %111
 .G,,2 .^F,,2 .G,,2 | .G,,2 .^F,,2 .G,,2 | .G,,2 .^F,,2 .G,,2 |[M:9/4] z18 |[M:3/4] z6 | z6 | z6 | %118
 z6 | .^F2 z2 z2 | .F2 z2 z2 | .E2 .^D2 .=D2 | .^D2 z2 z2 | z6 | z6 | z6 | z6 | z6 | z6 | z6 | z6 | %131
 z6 | z6 | z6 | z6 | z6 | z6 | z6 | z6 | z6 | z6 | z6 | z6 | z6 | z6 | z6 | z6 | ^G,6 | A,6 | E,6 | %150
 F,6 | D,6 | E,6 | E,6 | .A,,2 .^G,,2 .A,,2 | .A,,2 .^G,,2 .A,,2 | .A,,2 .^G,,2 .A,,2 | %157
 .A,,2 .^G,,2 .A,,2 | .A,,2 .^G,,2 .A,,2 | .A,,2 .^G,,2 .A,,2 | .A,,2 .^G,,2 .A,,2 | %161
 .A,,2 .^G,,2 .A,,2 | .A,,2 .^G,,2 .A,,2 | .A,,2 .^G,,2 .A,,2 | .A,,2 .^G,,2 .A,,2 | %165
 .A,,2 .^G,,2 .A,,2 | .A,,2 .^G,,2 .A,,2 | .A,,2 .^G,,2 .A,,2 | .G,,2 .^F,,2 .G,,2 | %169
 .G,,2 .^F,,2 .G,,2 | .G,,2 .^F,,2 .G,,2 | .G,,2 .^F,,2 .G,,2 | .G,,2 .^F,,2 .G,,2 | %173
 .G,,2 .^F,,2 .G,,2 | .G,,2 .^F,,2 .G,,2 | .G,,2 .^F,,2 .G,,2 | G,,,G,, ^F,,,^F,, G,,,G,, | %177
 G,,,G,, ^F,,,^F,, G,,,G,, | G,,,G,, ^F,,,^F,, G,,,G,, | G,,,G,, ^F,,,^F,, G,,,G,, | %180
 G,,,G,, ^F,,,^F,, G,,,G,, | G,,,G,, ^F,,,^F,, G,,,G,, | .G,.G, .G,.G, .G,.G, | %183
 .G,.G, .G,.G, .G,.G, | C,,C, D,,D, E,,E, | D,,D, C,,C, B,,,B,, | A,,,A,, B,,,B,, C,,C, | %187
 B,,,B,, A,,,A,, G,,,G,, | ^C,,^C, =C,,=C, _B,,,_B,, | A,,,A,, G,,,G,, G,,,F,, | %190
 ^G,,,^G,, =G,,,=G,, ^F,,,^F,, | G,,,G,, B,,D, .G,2 | .C,2 .B,,2 .C,2 | .E,2 .^D,2 .E,2 | %194
 .A,2 .^G,2 .A,2 | ._B,2 .=B,2[K:treble] .C2 | .^C2 .=C2 .^C2 | .D2 .^D2 .E2 | .F2 .E2 .F2 | %199
 .^F2 .G2 .^G2 | .A2 .^G2 .A2 | ._B2 .=B2 .c2 | .G,,2 .C,2 .E,2 | .G,2 .C2[K:treble] .E2 | %204
 .G,2 .C2 AB, | F[K:bass]G, DE, B,C, | z6 | z6 | z6 |[M:6/4] z12 |[K:Ab][M:3/4] z6 | z6 | z6 | z6 | %214
 z6 | z6 | z6 | A,,6 | z6 | z6 | z6 | z6 | z6 | z6 | z6 | z6 | z6 | z6 | z6 | z6 | z6 | z6 | z6 | %233
 z6 | z6 | z6 | z6 | z6 | z6 | z6 | z6 | z6 | z6 | z6 | z6 | z6 | z6 | z6 | z6 | E,6 | z6 | z6 | %252
 z6 | z6 | z6 | z6 | z6 | z6 | z6 | z6 | z6 | z6 | z6 | z6 | z6 | z6 | z6 | z6 | z6 | z6 | z6 | %271
 z6 | z6 | z6 | z6 | z6 | z6 | z6 | z6 | z6 | z6 | z6 | z6 | z6 | z6 | z6 | z6 | A,,6 | z6 | z6 | %290
 z6 | z6 | z6 | z6 | z6 | z6 | z6 | z6 | z6 | z6 | z6 | z6 | z6 | E,6 | z6 | z6 | z6 | z6 | z6 | %309
 z6 | z6 | z6 | z6 | z6 | z6 | z6 | z6 | z6 | z6 | z6 | z6 | z6 | z6 | z6 | z6 | z6 | z6 | z6 | %328
 z6 | z6 | z6 | z6 | z6 | z6 | z6 | z6 | z6 | z6 | z6 | z6 | z6 | A,,6 | z6 | z6 | z6 | z6 | z6 | %347
 z6 | z6 | z6 | z6 | z6 | z6 | z6 | z6 | z6 | z6 | z6 | z6 | z6 | z6 | A,,6 | z6 | z6 | z6 | A,,6 | %366
 z6 | z6 | z6 | A,,6 | z6 | A,,6 | z6 | A,,6 | z6 | A,,6 | z6 | A,,6 | z6 | A,,6 | z6 | A,,6 | %382
[K:G] D,3 D, D,D, | .D,2 .C,2 .D,2 | .E,2 .G,2 .E,2 | .C,2 z2 z2 | D3 D DD | .D2 .C2 .D2 | %388
 .E2 .G2 .E2 | .C2 z2 z2 | A,3 A, A,A, | .A,2 .G,2 .A,2 | .B,2 .D2 .B,2 | .G,2 z2 z2 | %394
 A,3 A, A,A, | .A,2 .G,2 .A,2 | .B,2 .D2 .B, (3:2:2z C,/ | z6 | %398
 z/8 A,3/8 z/ z .C2 .A, (3:2:2z B,,/ | z6 | z/8 G,3/8 z/ z .B,2 .G, (3:2:2z A,,/ | z6 | %402
 D,3 D, D,D, | D,3 D, D,D, | .D,2 .C,2 .D,2 | .E,2 .D,2 .E,2 | .=F,2 .E,2 .F,2 | .F,2 .=F,2 .^F,2 | %408
 .G,.G, .G,.G, .G,.G, | .G,.G, .G,.G, .G,.G, | C,,2 C,2 C,,2 | B,,2 C,,2 B,,2 | C,,2 _B,,2 C,,2 | %413
 A,,2 C,,2 A,,2 | C,,2 ^G,,2 C,,2 | G,,2 C,,2 G,,2 | C,,2 F,,2 C,,2 | A,,2 C,,2 A,,2 | %418
 C,,2 C,2 C,,2 | B,,2 C,,2 B,,2 | C,,2 _B,,2 C,,2 | A,,2 C,,2 A,,2 | C,,2 ^G,,2 C,,2 | %423
 ^G,,2 C,,2 G,,2 | C,,2 F,,2 C,,2 | F,,2 C,,2 F,,2 | ^C,,2 =F,,2 C,,2 | =F,,2 ^C,,2 F,,2 | %428
 ^C,,2 =F,,2 C,,2 | =F,,2 ^C,,2 F,,2 | G,,,G,, G,,,G,, ^G,,,^G,, | ^G,,,^G,, A,,,A,, A,,,A,, | %432
 _B,,,_B,, B,,,B,, =B,,,=B,, | B,,,B,, G,,,G,, G,,,G,, | z2 .B,,2 z2 | z6 | z2 .B,,2 z2 | z6 | %438
 z2 .B,,2 z2 | z6 | z6 | z6 | z6 | z6 | z2 C2 ^G,2 | G,2 E,2 C,2 | .^G,,2 z2 z2 | !fermata!z6 | %448
 .C,,2 B,,,C,, D,,C,, | !fermata!C,,6 |] %450
V:9
 D,,3 D,, D,,D,, | .D,,2 .C,,2 .D,,2 | .E,,2 .G,,2 .E,,2 | .C,,2 z2 z2 | D,3 D, D,D, | %5
 .[G,,D,]2 .[G,,D,]2 .[G,,D,]2 | .C,2 .C,2 .C,2 | .C,2 z2 z2 | A,,3 A,, A,,A,, | %9
 .A,,2 .G,,2 .A,,2 | .B,,2 .D,2 .B,,2 | .E,2 z2 z2 | A,3 A, A,A, | .[D,A,]2 .[D,A,]2 .[D,A,]2 | %14
 .G,2 z2 z2 | .C,,2 .E,,2 .C,,2 | .^F,,2 z2 z2 | .B,,,2 .D,,2 .B,,,2 | .E,,2 z2 z2 | %19
 .A,,,2 .C,,2 .A,,,2 | D,,3 D,, D,,D,, | D,,3 D,, D,,D,, | .D,,2 .C,,2 .D,,2 | .E,,2 .D,,2 .E,,2 | %24
 .F,,2 .E,,2 .F,,2 | .^F,,2 .=F,,2 .^F,,2 | %26
 .[G,,C,E,].[G,,C,E,] .[G,,C,E,].[G,,C,E,] .[G,,C,E,].[G,,C,E,] | %27
 .[G,,B,,D,F,].[G,,B,,D,F,] .[G,,B,,D,F,].[G,,B,,D,F,] .[G,,B,,D,F,].[G,,B,,D,F,] | %28
 .[C,,E,,G,,]2 z2 z2 | .[C,,E,,G,,]2 z2 z2 | .[C,^D,^F,A,]2 .[C,D,F,^G,]2 .[C,D,F,A,]2 | %31
 .[B,,D,G,]2 z2 z2 | .[_B,,^C,E,]2 z2 z2 | .[A,,C,F,]2 z2 z2 | .[^G,,C,]2 .[=G,,C,]2 .[^F,,C,]2 | %35
 .G,,2 z2 z2 | .[C,,E,,G,,]2 z2 z2 | .[C,,E,,G,,]2 z2 z2 | %38
 .[C,^D,^F,A,]2 .[C,D,F,^G,]2 .[C,D,F,A,]2 | .[B,,D,G,]2 z2 z2 | .[_B,,^C,E,]2 z2 z2 | %41
 .[^G,,^C,F,]2 z2 z2 | .[G,,D,F,]2 .[G,,D,F,]2 .[G,,D,F,]2 | .[C,,E,,G,,]2 z2 z2 | z6 | z6 | z6 | %47
 z6 | z6 | z6 | z6 | z6 | z6 | z6 | z6 | z6 | z6 | z6 | z6 | z6 | z6 | z6 | z6 | z6 | z6 | z6 | %66
 z6 | z6 | z6 | z6 | z6 | z6 | z6 | z6 | z6 | z2 z2 .[G,,B,,D,F,]2 | .[C,,E,,G,,]2 z2 z2 | %77
 .[C,,E,,G,,]2 z2 z2 | .[C,^D,^F,A,]2 .[C,D,F,^G,]2 .[C,D,F,A,]2 | .[B,,D,G,]2 z2 z2 | %80
 .[_B,,^C,E,]2 z2 z2 | .[A,,C,F,]2 z2 z2 | .[^G,,C,]2 .[=G,,C,]2 .[^F,,C,]2 | .G,,2 z2 z2 | %84
 .[C,,E,,G,,]2 z2 z2 | .[C,,E,,G,,]2 z2 z2 | .[C,^D,^F,A,]2 .[C,D,F,^G,]2 .[C,D,F,A,]2 | %87
 .[B,,D,G,]2 z2 z2 | .[_B,,^C,E,]2 z2 z2 | .[^G,,^C,F,]2 z2 z2 | %90
 .[G,,D,F,]2 .[G,,D,F,]2 .[G,,D,F,]2 | .[C,,E,,G,,]2 z2 z2 | .A,,,2 .^G,,,2 .A,,,2 | %93
 .A,,,2 .^G,,,2 .A,,,2 | .A,,,2 .^G,,,2 .A,,,2 | .A,,,2 .^G,,,2 .A,,,2 | .A,,,2 .^G,,,2 .A,,,2 | %97
 .A,,,2 .^G,,,2 .A,,,2 | .A,,,2 .^G,,,2 .A,,,2 | .A,,,2 .^G,,,2 .A,,,2 | .A,,,2 .^G,,,2 .A,,,2 | %101
 .A,,,2 .^G,,,2 .A,,,2 | .A,,,2 .^G,,,2 .A,,,2 | .A,,,2 .^G,,,2 .A,,,2 | .A,,,2 .^G,,,2 .A,,,2 | %105
 .A,,,2 .^G,,,2 .A,,,2 | .G,,,2 .^F,,,2 .G,,,2 | .G,,,2 .^F,,,2 .G,,,2 | .G,,,2 .^F,,,2 .G,,,2 | %109
 .G,,,2 .^F,,,2 .G,,,2 | .G,,,2 .^F,,,2 .G,,,2 | .G,,,2 .^F,,,2 .G,,,2 | .G,,,2 .^F,,,2 .G,,,2 | %113
 .G,,,2 .^F,,,2 .G,,,2 |[M:9/4] z18 |[M:3/4] z6 | z6 | z6 | z6 | .[^F,A,C^D]2 z2 z2 | %120
 .[F,^G,^C]2 z2 z2 | .[E,^G,]2 .[^D,G,]2 .[=D,G,]2 | .^D,2 z2 z2 | z6 | z6 | z6 | z6 | z6 | z6 | %129
 z6 | z6 | z6 | z6 | z6 | z6 | z6 | z6 | z6 | z6 | z6 | z6 | z6 | z6 | z6 | z6 | z6 | z6 | z6 | %148
 z6 | z6 | z6 | z6 | z6 | z6 | .A,,,2 .^G,,,2 .A,,,2 | .A,,,2 .^G,,,2 .A,,,2 | %156
 .A,,,2 .^G,,,2 .A,,,2 | .A,,,2 .^G,,,2 .A,,,2 | .A,,,2 .^G,,,2 .A,,,2 | .A,,,2 .^G,,,2 .A,,,2 | %160
 .A,,,2 .^G,,,2 .A,,,2 | .A,,,2 .^G,,,2 .A,,,2 | .A,,,2 .^G,,,2 .A,,,2 | .A,,,2 .^G,,,2 .A,,,2 | %164
 .A,,,2 .^G,,,2 .A,,,2 | .A,,,2 .^G,,,2 .A,,,2 | .A,,,2 .^G,,,2 .A,,,2 | .A,,,2 .^G,,,2 .A,,,2 | %168
 .G,,,2 .^F,,,2 .G,,,2 | .G,,,2 .^F,,,2 .G,,,2 | .G,,,2 .^F,,,2 .G,,,2 | .G,,,2 .^F,,,2 .G,,,2 | %172
 .G,,,2 .^F,,,2 .G,,,2 | .G,,,2 .^F,,,2 .G,,,2 | .G,,,2 .^F,,,2 .G,,,2 | .G,,,2 .^F,,,2 .G,,,2 | %176
 z6 | z6 | z6 | z6 | z6 | z6 | .[G,,C,E,].[G,,C,E,] .[G,,C,E,].[G,,C,E,] .[G,,C,E,].[G,,C,E,] | %183
 .[G,,B,,D,F,].[G,,B,,D,F,] .[G,,B,,D,F,].[G,,B,,D,F,] .[G,,B,,D,F,].[G,,B,,D,F,] | z6 | z6 | z6 | %187
 z6 | z6 | z6 | z6 | z2 z2 .G,,2 | .[C,,E,,G,,]2 .B,,,2 .C,,2 | .[E,,G,,C,]2 .^D,,2 .E,,2 | %194
 .[A,,C,^D,^F,]2 .[^G,,C,D,F,]2 .[A,,C,D,F,]2 | .[_B,,C,^D,^F,]2 .[=B,,C,D,F,]2 .[C,D,F,]2 | %196
 .[^C,E,G,_B,]2 .[=C,E,G,B,]2 .[^C,E,G,C]2 | .[D,E,G,_B,]2 .[^D,E,G,B,]2 .[E,G,B,]2 | %198
 .[F,^G,B,D]2 .[E,G,B,D]2 .[F,G,B,D]2 | .[^F,^G,B,D]2[K:treble] .[G,B,D]2 .[G,B,D]2 | %200
 .[A,^CD^F]2 .[^G,CDF]2 .[A,CDF]2 | .[_B,C^D^F]2 .[=B,CDF]2 .[CDF]2 | .G,,,2 .C,,2 .E,,2 | %203
 .G,,2 .C,2 .E,2 | z2 z2 .[CE]2 | .[A,C]2 .[F,A,]2 .[D,F,]2 | z6 | z6 | z6 |[M:6/4] z12 | %210
[K:Ab][M:3/4] z6 | z6 | z6 | z6 | z6 | z6 | z6 | A,,,6 | z6 | z6 | z6 | z6 | z6 | z6 | z6 | z6 | %226
 z6 | z6 | z6 | z6 | z6 | z6 | z6 | z6 | z6 | z6 | z6 | z6 | z6 | z6 | z6 | z6 | z6 | z6 | z6 | %245
 z6 | z6 | z6 | z6 | E,,6 | z6 | z6 | z6 | z6 | z6 | z6 | z6 | z6 | z6 | z6 | z6 | z6 | z6 | z6 | %264
 z6 | z6 | z6 | z6 | z6 | z6 | z6 | z6 | z6 | z6 | z6 | z6 | z6 | z6 | z6 | z6 | z6 | z6 | z6 | %283
 z6 | z6 | z6 | z6 | A,,,6 | z6 | z6 | z6 | z6 | z6 | z6 | z6 | z6 | z6 | z6 | z6 | z6 | z6 | z6 | %302
 z6 | E,,6 | z6 | z6 | z6 | z6 | z6 | z6 | z6 | z6 | z6 | z6 | z6 | z6 | z6 | z6 | z6 | z6 | z6 | %321
 z6 | z6 | z6 | z6 | z6 | z6 | z6 | z6 | z6 | z6 | z6 | z6 | z6 | z6 | z6 | z6 | z6 | z6 | z6 | %340
 z6 | A,,,6 | z6 | z6 | z6 | z6 | z6 | z6 | z6 | z6 | z6 | z6 | z6 | z6 | z6 | z6 | z6 | z6 | z6 | %359
 z6 | z6 | A,,,6 | z6 | z6 | z6 | A,,,6 | z6 | z6 | z6 | A,,,6 | z6 | A,,,6 | z6 | A,,,6 | z6 | %375
 A,,,6 | z6 | A,,,6 | z6 | A,,,6 | z6 | A,,,6 |[K:G] D,,3 D,, D,,D,, | .D,,2 .C,,2 .D,,2 | %384
 .E,,2 .G,,2 .E,,2 | .C,,2 z2 z2 | [D,F,A,C]3 [D,F,A,C] [D,F,A,C][D,F,A,C] | %387
 .[G,B,]2 .[G,A,]2 .[G,B,]2 | .[C,G,C]2 .[CE]2 .[G,C]2 | .[C,E,G,]2 z2 z2 | A,,3 A,, A,,A,, | %391
 .A,,2 .G,,2 .A,,2 | .B,,2 .D,2 .B,,2 | .G,,2 z2 z2 | [C,G,]3 [C,G,] [C,G,][C,G,] | %395
 .[D,F,]2 .[D,E,]2 .[D,F,]2 | .[G,,D,G,]2 z2 z2 | .B,2 z2 z2 | z6 | .A,2 z2 z2 | z6 | .G,2 z2 z2 | %402
 D,,3 D,, D,,D,, | D,,3 D,, D,,D,, | .D,,2 .C,,2 .D,,2 | .E,,2 .D,,2 .E,,2 | .=F,,2 .E,,2 .F,,2 | %407
 .F,,2 .=F,,2 .^F,,2 | .[G,,C,E,].[G,,C,E,] .[G,,C,E,].[G,,C,E,] .[G,,C,E,].[G,,C,E,] | %409
 .[G,,B,,D,=F,].[G,,B,,D,F,] .[G,,B,,D,F,].[G,,B,,D,F,] .[G,,B,,D,F,].[G,,B,,D,F,] | z6 | z6 | z6 | %413
 z6 | z6 | z6 | z6 | z6 | z6 | z6 | z6 | z6 | z6 | z6 | z6 | z6 | z6 | z6 | z6 | z6 | z6 | z6 | %432
 z6 | z6 | z2 .[B,,,E,,G,,]2 z2 | z6 | z2 .[B,,,E,,G,,]2 z2 | z6 | z2 .[B,,,E,,G,,]2 z2 | z6 | z6 | %441
 z6 | z6 | z6 | z2 C,2 ^G,,2 | G,,2 E,,2 C,,2 | .^G,,,2 z2 z2 | !fermata!z6 | %448
 .[C,,,=F,,,^G,,,]2 [B,,,,F,,,A,,,][C,,,F,,,A,,,] [D,,,F,,,A,,,][C,,,F,,,A,,,] | %449
 !fermata![C,,,E,,,G,,,]6 |] %450
V:10
 x6 | x6 | x6 | x6 | x6 | x6 | x6 | x6 | x6 | x6 | x6 | x6 | x6 | x6 | x6 | x6 | x6 | x6 | x6 | %19
 x6 | x6 | x6 | x6 | x6 | x6 | x6 | x6 | x6 | x6 | x6 | x6 | x6 | x6 | x6 | x6 | x6 | x6 | x6 | %38
 x6 | x6 | x6 | x6 | x6 | x6 | x6 | x6 | x6 | x6 | x6 | x6 | x6 | x6 | x6 | x6 | x6 | x6 | x6 | %57
 x6 | x6 | x6 | x6 | x6 | x6 | x6 | x6 | x6 | x6 | x6 | x6 | x6 | x6 | x6 | x6 | x6 | x6 | x6 | %76
 x6 | x6 | x6 | x6 | x6 | x6 | x6 | x6 | x6 | x6 | x6 | x6 | x6 | x6 | x6 | x6 | x6 | x6 | x6 | %95
 x6 | x6 | x6 | x6 | x6 | x6 | x6 | x6 | x6 | x6 | x6 | x6 | x6 | x6 | x6 | x6 | x6 | x6 | x6 | %114
[M:9/4] x18 |[M:3/4] x6 | x6 | x6 | x6 | x6 | x6 | x6 | x6 | x6 | x6 | x6 | x6 | x6 | x6 | x6 | %130
 x6 | x6 | x6 | x6 | x6 | x6 | x6 | x6 | x6 | x6 | x6 | x6 | x6 | x6 | x6 | x6 | x6 | x6 | x6 | %149
 x6 | x6 | x6 | x6 | x6 | x6 | x6 | x6 | x6 | x6 | x6 | x6 | x6 | x6 | x6 | x6 | x6 | x6 | x6 | %168
 x6 | x6 | x6 | x6 | x6 | x6 | x6 | x6 | x6 | x6 | x6 | x6 | x6 | x6 | x6 | x6 | x6 | x6 | x6 | %187
 x6 | x6 | x6 | x6 | x6 | x6 | x6 | x6 | x4[K:treble] x2 | x6 | x6 | x6 | x6 | x6 | x6 | x6 | %203
 x4[K:treble] x2 | x6 | x[K:bass] x5 | x6 | x6 | x6 |[M:6/4] x12 |[K:Ab][M:3/4] x6 | x6 | x6 | x6 | %214
 x6 | x6 | x6 | x6 | x6 | x6 | x6 | x6 | x6 | x6 | x6 | x6 | x6 | x6 | x6 | x6 | x6 | x6 | x6 | %233
 x6 | x6 | x6 | x6 | x6 | x6 | x6 | x6 | x6 | x6 | x6 | x6 | x6 | x6 | x6 | x6 | x6 | x6 | x6 | %252
 x6 | x6 | x6 | x6 | x6 | x6 | x6 | x6 | x6 | x6 | x6 | x6 | x6 | x6 | x6 | x6 | x6 | x6 | x6 | %271
 x6 | x6 | x6 | x6 | x6 | x6 | x6 | x6 | x6 | x6 | x6 | x6 | x6 | x6 | x6 | x6 | x6 | x6 | x6 | %290
 x6 | x6 | x6 | x6 | x6 | x6 | x6 | x6 | x6 | x6 | x6 | x6 | x6 | x6 | x6 | x6 | x6 | x6 | x6 | %309
 x6 | x6 | x6 | x6 | x6 | x6 | x6 | x6 | x6 | x6 | x6 | x6 | x6 | x6 | x6 | x6 | x6 | x6 | x6 | %328
 x6 | x6 | x6 | x6 | x6 | x6 | x6 | x6 | x6 | x6 | x6 | x6 | x6 | x6 | x6 | x6 | x6 | x6 | x6 | %347
 x6 | x6 | x6 | x6 | x6 | x6 | x6 | x6 | x6 | x6 | x6 | x6 | x6 | x6 | x6 | x6 | x6 | x6 | x6 | %366
 x6 | x6 | x6 | x6 | x6 | x6 | x6 | x6 | x6 | x6 | x6 | x6 | x6 | x6 | x6 | x6 |[K:G] x6 | x6 | %384
 x6 | x6 | x6 | x6 | x6 | x6 | x6 | x6 | x6 | x6 | x6 | x6 | x23/4 G,/4- | G,2 x15/4 C,/4- | %398
 C,2 x15/4 F,/4- | F,2 x15/4 B,,/4- | B,,2 x15/4 E,/4- | E,2 x4 | x6 | x6 | x6 | x6 | x6 | x6 | %408
 x6 | x6 | x6 | x6 | x6 | x6 | x6 | x6 | x6 | x6 | x6 | x6 | x6 | x6 | x6 | x6 | x6 | x6 | x6 | %427
 x6 | x6 | x6 | x6 | x6 | x6 | x6 | x6 | x6 | x6 | x6 | x6 | x6 | x6 | x6 | x6 | x6 | x6 | x6 | %446
 x6 | x6 | x6 | x6 |] %450
V:11
 x6 | x6 | x6 | x6 | x6 | x6 | x6 | x6 | x6 | x6 | x6 | x6 | x6 | x6 | x6 | x6 | x6 | x6 | x6 | %19
 x6 | x6 | x6 | x6 | x6 | x6 | x6 | x6 | x6 | x6 | x6 | x6 | x6 | x6 | x6 | x6 | x6 | x6 | x6 | %38
 x6 | x6 | x6 | x6 | x6 | x6 | x6 | x6 | x6 | x6 | x6 | x6 | x6 | x6 | x6 | x6 | x6 | x6 | x6 | %57
 x6 | x6 | x6 | x6 | x6 | x6 | x6 | x6 | x6 | x6 | x6 | x6 | x6 | x6 | x6 | x6 | x6 | x6 | x6 | %76
 x6 | x6 | x6 | x6 | x6 | x6 | x6 | x6 | x6 | x6 | x6 | x6 | x6 | x6 | x6 | x6 | x6 | x6 | x6 | %95
 x6 | x6 | x6 | x6 | x6 | x6 | x6 | x6 | x6 | x6 | x6 | x6 | x6 | x6 | x6 | x6 | x6 | x6 | x6 | %114
[M:9/4] x18 |[M:3/4] x6 | x6 | x6 | x6 | x6 | x6 | x6 | x6 | x6 | x6 | x6 | x6 | x6 | x6 | x6 | %130
 x6 | x6 | x6 | x6 | x6 | x6 | x6 | x6 | x6 | x6 | x6 | x6 | x6 | x6 | x6 | x6 | x6 | x6 | x6 | %149
 x6 | x6 | x6 | x6 | x6 | x6 | x6 | x6 | x6 | x6 | x6 | x6 | x6 | x6 | x6 | x6 | x6 | x6 | x6 | %168
 x6 | x6 | x6 | x6 | x6 | x6 | x6 | x6 | x6 | x6 | x6 | x6 | x6 | x6 | x6 | x6 | x6 | x6 | x6 | %187
 x6 | x6 | x6 | x6 | x6 | x6 | x6 | x6 | x6 | x6 | x6 | x6 | x2[K:treble] x4 | x6 | x6 | x6 | x6 | %204
 x6 | x6 | x6 | x6 | x6 |[M:6/4] x12 |[K:Ab][M:3/4] x6 | x6 | x6 | x6 | x6 | x6 | x6 | x6 | x6 | %219
 x6 | x6 | x6 | x6 | x6 | x6 | x6 | x6 | x6 | x6 | x6 | x6 | x6 | x6 | x6 | x6 | x6 | x6 | x6 | %238
 x6 | x6 | x6 | x6 | x6 | x6 | x6 | x6 | x6 | x6 | x6 | x6 | x6 | x6 | x6 | x6 | x6 | x6 | x6 | %257
 x6 | x6 | x6 | x6 | x6 | x6 | x6 | x6 | x6 | x6 | x6 | x6 | x6 | x6 | x6 | x6 | x6 | x6 | x6 | %276
 x6 | x6 | x6 | x6 | x6 | x6 | x6 | x6 | x6 | x6 | x6 | x6 | x6 | x6 | x6 | x6 | x6 | x6 | x6 | %295
 x6 | x6 | x6 | x6 | x6 | x6 | x6 | x6 | x6 | x6 | x6 | x6 | x6 | x6 | x6 | x6 | x6 | x6 | x6 | %314
 x6 | x6 | x6 | x6 | x6 | x6 | x6 | x6 | x6 | x6 | x6 | x6 | x6 | x6 | x6 | x6 | x6 | x6 | x6 | %333
 x6 | x6 | x6 | x6 | x6 | x6 | x6 | x6 | x6 | x6 | x6 | x6 | x6 | x6 | x6 | x6 | x6 | x6 | x6 | %352
 x6 | x6 | x6 | x6 | x6 | x6 | x6 | x6 | x6 | x6 | x6 | x6 | x6 | x6 | x6 | x6 | x6 | x6 | x6 | %371
 x6 | x6 | x6 | x6 | x6 | x6 | x6 | x6 | x6 | x6 | x6 |[K:G] x6 | x6 | x6 | x6 | x6 | x6 | x6 | %389
 x6 | x6 | x6 | x6 | x6 | x6 | x6 | x6 | E3/8 x3/2 .E,2 .C, x2/3 (3:2:1F,,/ | x6 | %399
 D3/8 x3/2 .D,2 .B,, x2/3 (3:2:1E,,/ | x6 | C3/8 x3/2 .C,2 .A,,2 | x6 | x6 | x6 | x6 | x6 | x6 | %408
 x6 | x6 | x6 | x6 | x6 | x6 | x6 | x6 | x6 | x6 | x6 | x6 | x6 | x6 | x6 | x6 | x6 | x6 | x6 | %427
 x6 | x6 | x6 | x6 | x6 | x6 | x6 | x6 | x6 | x6 | x6 | x6 | x6 | x6 | x6 | x6 | x6 | x6 | x6 | %446
 x6 | x6 | x6 | x6 |] %450
V:12
 x6 | x6 | x6 | x6 | x6 | x6 | x6 | x6 | x6 | x6 | x6 | x6 | x6 | x6 | x6 | x6 | x6 | x6 | x6 | %19
 x6 | x6 | x6 | x6 | x6 | x6 | x6 | x6 | x6 | x6 | x6 | x6 | x6 | x6 | x6 | x6 | x6 | x6 | x6 | %38
 x6 | x6 | x6 | x6 | x6 | x6 | x6 | x6 | x6 | x6 | x6 | x6 | x6 | x6 | x6 | x6 | x6 | x6 | x6 | %57
 x6 | x6 | x6 | x6 | x6 | x6 | x6 | x6 | x6 | x6 | x6 | x6 | x6 | x6 | x6 | x6 | x6 | x6 | x6 | %76
 x6 | x6 | x6 | x6 | x6 | x6 | x6 | x6 | x6 | x6 | x6 | x6 | x6 | x6 | x6 | x6 | x6 | x6 | x6 | %95
 x6 | x6 | x6 | x6 | x6 | x6 | x6 | x6 | x6 | x6 | x6 | x6 | x6 | x6 | x6 | x6 | x6 | x6 | x6 | %114
[M:9/4] x18 |[M:3/4] x6 | x6 | x6 | x6 | x6 | x6 | x6 | x6 | x6 | x6 | x6 | x6 | x6 | x6 | x6 | %130
 x6 | x6 | x6 | x6 | x6 | x6 | x6 | x6 | x6 | x6 | x6 | x6 | x6 | x6 | x6 | x6 | x6 | x6 | x6 | %149
 x6 | x6 | x6 | x6 | x6 | x6 | x6 | x6 | x6 | x6 | x6 | x6 | x6 | x6 | x6 | x6 | x6 | x6 | x6 | %168
 x6 | x6 | x6 | x6 | x6 | x6 | x6 | x6 | x6 | x6 | x6 | x6 | x6 | x6 | x6 | x6 | x6 | x6 | x6 | %187
 x6 | x6 | x6 | x6 | x6 | x6 | x6 | x6 | x4[K:treble] x2 | x6 | x6 | x6 | x6 | x6 | x6 | x6 | %203
 x4[K:treble] x2 | x6 | x[K:bass] x5 | x6 | x6 | x6 |[M:6/4] x12 |[K:Ab][M:3/4] x6 | x6 | x6 | x6 | %214
 x6 | x6 | x6 | x6 | x6 | x6 | x6 | x6 | x6 | x6 | x6 | x6 | x6 | x6 | x6 | x6 | x6 | x6 | x6 | %233
 x6 | x6 | x6 | x6 | x6 | x6 | x6 | x6 | x6 | x6 | x6 | x6 | x6 | x6 | x6 | x6 | x6 | x6 | x6 | %252
 x6 | x6 | x6 | x6 | x6 | x6 | x6 | x6 | x6 | x6 | x6 | x6 | x6 | x6 | x6 | x6 | x6 | x6 | x6 | %271
 x6 | x6 | x6 | x6 | x6 | x6 | x6 | x6 | x6 | x6 | x6 | x6 | x6 | x6 | x6 | x6 | x6 | x6 | x6 | %290
 x6 | x6 | x6 | x6 | x6 | x6 | x6 | x6 | x6 | x6 | x6 | x6 | x6 | x6 | x6 | x6 | x6 | x6 | x6 | %309
 x6 | x6 | x6 | x6 | x6 | x6 | x6 | x6 | x6 | x6 | x6 | x6 | x6 | x6 | x6 | x6 | x6 | x6 | x6 | %328
 x6 | x6 | x6 | x6 | x6 | x6 | x6 | x6 | x6 | x6 | x6 | x6 | x6 | x6 | x6 | x6 | x6 | x6 | x6 | %347
 x6 | x6 | x6 | x6 | x6 | x6 | x6 | x6 | x6 | x6 | x6 | x6 | x6 | x6 | x6 | x6 | x6 | x6 | x6 | %366
 x6 | x6 | x6 | x6 | x6 | x6 | x6 | x6 | x6 | x6 | x6 | x6 | x6 | x6 | x6 | x6 |[K:G] x6 | x6 | %384
 x6 | x6 | x6 | x6 | x6 | x6 | x6 | x6 | x6 | x6 | x6 | x6 | x6 | x6 | .E,2 x4 | x6 | .D,2 x4 | %401
 x6 | x6 | x6 | x6 | x6 | x6 | x6 | x6 | x6 | x6 | x6 | x6 | x6 | x6 | x6 | x6 | x6 | x6 | x6 | %420
 x6 | x6 | x6 | x6 | x6 | x6 | x6 | x6 | x6 | x6 | x6 | x6 | x6 | x6 | x6 | x6 | x6 | x6 | x6 | %439
 x6 | x6 | x6 | x6 | x6 | x6 | x6 | x6 | x6 | x6 | x6 |] %450

